X:1
T:8. Dance Song: TIle Lovers Bill alld Coo
T:17. The Maid Chooses a Mate
T:For Children Nr 17 , Sz 42 
T:Béla Bartók Revised and Arranged by the Composer, January 1945 
T:Book 2 (after Slovakian Folksongs)
%%score { 1 | ( 2 3 ) }
L:1/8
Q:1/4=82
M:3/8
K:C
V:1 treble nm="Piano" snm="Pno."
V:2 bass 
V:3 bass 
V:1
"^Andante"!p! (!4!GGE | A G2 | E D2 | E3) |!<(! (!4!B!3!BA | c B2 | A!3!AB)!<)! |!>(! (!2!G!4!GE | %8
 A G2 | EDE)!>)! |!p! (GGE | A G2 | E D2 | E3) | z3 | z3 | z3 | z3 |!mp! (!4!_BBG | c _B2 | G F2 | %21
 G3) |"_cresc." (!4!d!3!dc | _e d2 | c!3!cd) |"_dim." (!2!_B!4!BG | c _B2 | GF(!3!G-) | %28
"_sempre dim." GF)(G- |[Q:1/4=72]"^T" G"_e rit."F)(G- | G[Q:1/4=62]"^T"F)G- | %31
 G"^a tempo"[Q:1/4=82]"^T"(!4!G!p!E | A G2 | E D2 | E3) |] %35
V:2
 (E,,2 z | !3!!1![G,B,]2 E, | !2!!1![A,C]2 E, | [G,B,]2 E,) | (!3!!1![^F,B,]2 D, | %5
 !3!!1![E,A,]2 D, | [E,A,]2 C,) | (!2!!1![D,E,]2 B,, | [D,E,]2 A,, | [^C,G,]2 A,,) | z3 | %11
 z2!ped! (!5!B,,, | !1!G, ^F,2)!ped-up! |!ped! !3!!1![E,G,]3 | z3 |!pp! !3!E,,3 | z3 | !3!E,,3 | %18
 z3!ped-up! | z2!ped! (!5!D,, | !1!_B, A,2)!ped-up! | [G,_B,]3 | (!2!!1![_B,D]2 G, | %23
 !2!!1![A,D]2 F, | !3!!2![G,A,]2 E,) | (!2!!1![G,_B,]2 _E, | !3!!2![F,G,]2 D, | %27
 !3!!1![E,_B,]2 C,) | z2 !5!C, |!ped! (!3!!1![E,=B,]2 B,,)!ped-up! | %30
!ped! !2!!1![E,^C]2 A,,!ped-up! | z3 | z2!ped! (!5!B,,, | !1!G,!ped-up! ^F,2) | [E,G,]3 |] %35
V:3
 x3 | x3 | x3 | x3 | x3 | x3 | x3 | x3 | x3 | x3 | x3 | x3 | !5!B,,3 | x3 | x3 | x3 | x3 | x3 | %18
 x3 | x3 | !5!D,3 | x3 | x3 | x3 | x3 | x3 | x3 | x3 | x3 | x3 | x3 | x3 | x3 | !5!B,,3 | x3 |] %35

